app/img/nom-block-bg-1.svg

<svg width="388" height="300" viewBox="0 0 388 300" fill="none" xmlns="http://www.w3.org/2000/svg">
<path d="M117.072 420.866V150.242V-120.429H387.742H658.367V150.242V420.866H387.742H117.072Z" stroke="#00F0FF" stroke-opacity="0.12" stroke-width="6.67979" stroke-miterlimit="10"/>
<path d="M4.99976 150.242L196.348 -41.1522L387.743 -232.5L579.091 -41.1522L770.439 150.242L387.743 532.939L4.99976 150.242Z" stroke="#00F0FF" stroke-opacity="0.12" stroke-width="6.67979" stroke-miterlimit="10"/>
<path d="M150.471 -87.0297L387.743 -92.3179L624.968 -87.0297L630.256 150.242L624.968 387.468L387.743 392.756L150.471 387.468L145.183 150.242L150.471 -87.0297Z" stroke="#00F0FF" stroke-opacity="0.24" stroke-width="5.89121" stroke-miterlimit="10"/>
<path d="M216.248 -21.2523L387.742 -185.278L559.237 -21.2523L723.263 150.242L559.237 321.737L387.742 485.716L216.248 321.737L52.2219 150.242L216.248 -21.2523Z" stroke="#00F0FF" stroke-opacity="0.24" stroke-width="5.89121" stroke-miterlimit="10"/>
<path d="M183.87 -53.6302L387.743 -64.2065L591.569 -53.6302L602.146 150.243L591.569 354.069L387.743 364.645L183.87 354.069L173.294 150.243L183.87 -53.6302Z" stroke="#00F0FF" stroke-opacity="0.48" stroke-width="5.14901" stroke-miterlimit="10"/>
<path d="M236.103 -1.39773L387.743 -138.102L539.338 -1.39773L676.041 150.243L539.338 301.837L387.743 438.541L236.103 301.837L99.4453 150.243L236.103 -1.39773Z" stroke="#00F0FF" stroke-opacity="0.48" stroke-width="5.14901" stroke-miterlimit="10"/>
<path d="M217.223 -20.2776L387.743 -36.0957L558.217 -20.2776L574.035 150.243L558.217 320.717L387.743 336.535L217.223 320.717L201.405 150.243L217.223 -20.2776Z" stroke="#00F0FF" stroke-opacity="0.6" stroke-width="4.36042" stroke-miterlimit="10"/>
<path d="M256.003 18.502L387.743 -90.8796L519.437 18.502L628.819 150.242L519.437 281.936L387.743 391.318L256.003 281.936L146.621 150.242L256.003 18.502Z" stroke="#00F0FF" stroke-opacity="0.6" stroke-width="4.36042" stroke-miterlimit="10"/>
<path d="M250.621 13.1205L387.742 -7.98584L524.817 13.1205L545.923 150.242L524.817 287.317L387.742 308.423L250.621 287.317L229.515 150.242L250.621 13.1205Z" stroke="#00F0FF" stroke-opacity="0.72" stroke-width="3.57183" stroke-miterlimit="10"/>
<path d="M275.856 38.3556L387.743 -43.6575L499.583 38.3556L581.596 150.242L499.583 262.082L387.743 344.095L275.856 262.082L193.843 150.242L275.856 38.3556Z" stroke="#00F0FF" stroke-opacity="0.72" stroke-width="3.57183" stroke-miterlimit="10"/>
<path d="M284.02 46.5199L387.743 20.1255L491.419 46.5199L517.813 150.242L491.419 253.918L387.743 280.313L284.02 253.918L257.626 150.242L284.02 46.5199Z" stroke="#00F0FF" stroke-opacity="0.82" stroke-width="2.82963" stroke-miterlimit="10"/>
<path d="M295.756 58.2558L387.742 3.56494L479.682 58.2558L534.373 150.242L479.682 242.182L387.742 296.873L295.756 242.182L241.065 150.242L295.756 58.2558Z" stroke="#00F0FF" stroke-opacity="0.82" stroke-width="2.82963" stroke-miterlimit="10"/>
<path d="M317.419 79.9192L387.743 48.2366L458.02 79.9192L489.702 150.243L458.02 220.52L387.743 252.202L317.419 220.52L285.737 150.243L317.419 79.9192Z" stroke="#00F0FF" stroke-opacity="0.96" stroke-width="2.04105" stroke-miterlimit="10"/>
<path d="M315.611 78.1103L387.743 50.7881L459.829 78.1103L487.151 150.243L459.829 222.329L387.743 249.651L315.611 222.329L288.288 150.243L315.611 78.1103Z" stroke="#00F0FF" stroke-opacity="0.96" stroke-width="2.04105" stroke-miterlimit="10"/>
<path d="M313.848 150.243L350.772 113.272L387.743 76.3474L424.668 113.272L461.592 150.243L387.743 224.091L350.772 187.167L313.848 150.243Z" stroke="#00EDFF" stroke-width="1.29885" stroke-miterlimit="10"/>
<path d="M335.51 98.01H387.743H439.929V150.242V202.428H387.743H335.51V150.242V98.01Z" stroke="#00EDFF" stroke-width="1.29885" stroke-miterlimit="10"/>
</svg>

<svg width="388" height="300" fill="none" xmlns="http://www.w3.org/2000/svg"><path d="M117.072 420.866v-541.295h541.295v541.295H117.072z" stroke="#00F0FF" stroke-opacity=".12" stroke-width="6.68" stroke-miterlimit="10"/><path d="M5 150.242L196.348-41.152 387.743-232.5 579.091-41.152l191.348 191.394-382.696 382.697L5 150.242z" stroke="#00F0FF" stroke-opacity=".12" stroke-width="6.68" stroke-miterlimit="10"/><path d="M150.471-87.03l237.272-5.288 237.225 5.288 5.288 237.272-5.288 237.226-237.225 5.288-237.272-5.288-5.288-237.226 5.288-237.272z" stroke="#00F0FF" stroke-opacity=".24" stroke-width="5.891" stroke-miterlimit="10"/><path d="M216.248-21.252l171.494-164.026L559.237-21.252l164.026 171.494-164.026 171.495-171.495 163.979-171.494-163.979L52.222 150.242 216.248-21.252z" stroke="#00F0FF" stroke-opacity=".24" stroke-width="5.891" stroke-miterlimit="10"/><path d="M183.87-53.63l203.873-10.577L591.569-53.63l10.577 203.873-10.577 203.826-203.826 10.576-203.873-10.576-10.576-203.826L183.87-53.63z" stroke="#00F0FF" stroke-opacity=".48" stroke-width="5.149" stroke-miterlimit="10"/><path d="M236.103-1.398l151.64-136.704L539.338-1.398l136.703 151.641-136.703 151.594-151.595 136.704-151.64-136.704L99.445 150.243 236.103-1.397z" stroke="#00F0FF" stroke-opacity=".48" stroke-width="5.149" stroke-miterlimit="10"/><path d="M217.223-20.278l170.52-15.818 170.474 15.818 15.818 170.521-15.818 170.474-170.474 15.818-170.52-15.818-15.818-170.474 15.818-170.52z" stroke="#00F0FF" stroke-opacity=".6" stroke-width="4.36" stroke-miterlimit="10"/><path d="M256.003 18.502L387.743-90.88 519.437 18.502l109.382 131.74-109.382 131.694-131.694 109.382-131.74-109.382-109.382-131.694 109.382-131.74z" stroke="#00F0FF" stroke-opacity=".6" stroke-width="4.36" stroke-miterlimit="10"/><path d="M250.621 13.12L387.742-7.986l137.075 21.107 21.106 137.121-21.106 137.075-137.075 21.106-137.121-21.106-21.106-137.075 21.106-137.121z" stroke="#00F0FF" stroke-opacity=".72" stroke-width="3.572" stroke-miterlimit="10"/><path d="M275.856 38.356l111.887-82.014 111.84 82.014 82.013 111.886-82.013 111.84-111.84 82.013-111.887-82.013-82.013-111.84 82.013-111.886z" stroke="#00F0FF" stroke-opacity=".72" stroke-width="3.572" stroke-miterlimit="10"/><path d="M284.02 46.52l103.723-26.395L491.419 46.52l26.394 103.722-26.394 103.676-103.676 26.395-103.723-26.395-26.394-103.676L284.02 46.52z" stroke="#00F0FF" stroke-opacity=".82" stroke-width="2.83" stroke-miterlimit="10"/><path d="M295.756 58.256l91.986-54.691 91.94 54.69 54.691 91.987-54.691 91.94-91.94 54.691-91.986-54.691-54.691-91.94 54.691-91.986z" stroke="#00F0FF" stroke-opacity=".82" stroke-width="2.83" stroke-miterlimit="10"/><path d="M317.419 79.92l70.324-31.683 70.277 31.682 31.682 70.324-31.682 70.277-70.277 31.682-70.324-31.682-31.682-70.277 31.682-70.324z" stroke="#00F0FF" stroke-opacity=".96" stroke-width="2.041" stroke-miterlimit="10"/><path d="M315.611 78.11l72.132-27.322 72.086 27.322 27.322 72.133-27.322 72.086-72.086 27.322-72.132-27.322-27.323-72.086 27.323-72.133z" stroke="#00F0FF" stroke-opacity=".96" stroke-width="2.041" stroke-miterlimit="10"/><path d="M313.848 150.243l36.924-36.971 36.971-36.925 36.925 36.925 36.924 36.971-73.849 73.848-36.971-36.924-36.924-36.924z" stroke="#00EDFF" stroke-width="1.299" stroke-miterlimit="10"/><path d="M335.51 98.01h104.419v104.418H335.51V98.01z" stroke="#00EDFF" stroke-width="1.299" stroke-miterlimit="10"/></svg>
